austria/municipalities/20515.svg

<svg xmlns="http://www.w3.org/2000/svg" width="850" height="850" style="shape-rendering:geometricPrecision;text-rendering:geometricPrecision;image-rendering:optimizeQuality;fill-rule:evenodd;clip-rule:evenodd"><path style="opacity:1" fill="#c8c7c7" d="M837.5 17.5v-6h-826v4c-.951-1.419-1.284-3.085-1-5h828c.302 2.56-.032 4.893-1 7z"/><path style="opacity:1" fill="#252223" d="M837.5 17.5a61428.695 61428.695 0 0 1-33.5 476C785.884 635.854 713.051 739.02 585.5 803c-101.823 45.101-204.489 47.101-308 6C169.696 761.862 97.529 682.362 61 570.5a436.225 436.225 0 0 1-15-70 46084.756 46084.756 0 0 1-34.5-485v-4h826v6z"/><path style="opacity:1" fill="#124262" d="M818.5 34.5v-5h-788v3c-.934-1.068-1.268-2.401-1-4h790c.295 2.235-.039 4.235-1 6z"/><path style="opacity:1" fill="#0065a5" d="M818.5 34.5a698424.157 698424.157 0 0 1-31.5 446c-4.224 51.162-18.057 99.495-41.5 145a7486.277 7486.277 0 0 1-85-140v-373h-135v304a236.327 236.327 0 0 1-16.5 4c-.5-9.327-.666-18.661-.5-28-11.98 2.327-23.98 4.661-36 7v29c-4.36.507-8.693 1.173-13 2v-28a344.431 344.431 0 0 1-39 8v29a102.914 102.914 0 0 1-14 2v-27a1455.765 1455.765 0 0 1-37 7v29a152.1 152.1 0 0 1-14 2v-27a975.076 975.076 0 0 1-41 8v29a36.964 36.964 0 0 0-13 3c-1-73.664-1.333-147.33-1-221h-114c.167 111.001 0 222.001-.5 333a4992.18 4992.18 0 0 1-82 47 3.943 3.943 0 0 1-2-1c-28.283-57.618-42.617-118.618-43-183-9.41-136.013-18.91-272.013-28.5-408v-3h788v5z"/><path style="opacity:1" fill="#14405d" d="M660.5 485.5c-1-123.832-1.333-247.832-1-372h-133c.333 101.168-.001 202.168-1 303v-304h135v373z"/><path style="opacity:1" fill="#5a451d" d="M535.5 122.5v378h3c-1.068.934-2.401 1.268-4 1-.333-126.501 0-252.834 1-379z"/><path style="opacity:1" fill="#fcb713" d="M535.5 122.5h115c.167 118 0 236-.5 354a6474.093 6474.093 0 0 1-111.5 24h-3v-378z"/><path style="opacity:1" fill="#241f20" d="M561.5 139.5c8.352-1.502 14.852 1.165 19.5 8a119.884 119.884 0 0 1 1.5 26h-31a129.006 129.006 0 0 1 1.5-26c2.074-3.577 4.907-6.244 8.5-8zM612.5 139.5c9.787-1.92 16.954 1.414 21.5 10 .5 7.993.666 15.993.5 24h-31a129.006 129.006 0 0 1 1.5-26c2.028-3.192 4.528-5.859 7.5-8zM588.5 219.5h-23v-19c4.151-8.471 10.484-10.305 19-5.5a36.078 36.078 0 0 1 3.5 4.5c.5 6.658.666 13.325.5 20z"/><path style="opacity:1" fill="#231f20" d="M620.5 200.5v19h-23c-.166-6.675 0-13.342.5-20 5.186-7.576 11.686-8.909 19.5-4 1.452 1.44 2.452 3.106 3 5z"/><path style="opacity:1" fill="#5c461c" d="M565.5 200.5v19h23c-7.816.992-15.816 1.326-24 1-.324-6.854.009-13.521 1-20z"/><path style="opacity:1" fill="#5c471d" d="M620.5 200.5c.991 6.479 1.324 13.146 1 20-8.184.326-16.184-.008-24-1h23v-19z"/><path style="opacity:1" fill="#241f20" d="M586.5 234.5h13v37h-13v-37z"/><path style="opacity:1" fill="#fcb713" d="M290.5 554.5a11725.202 11725.202 0 0 0-94 20v-320h94v300z"/><path style="opacity:1" fill="#7e5f1b" d="M290.5 554.5v-300h-94v320a25766.398 25766.398 0 0 1-1-321h96c.333 100.501-.001 200.835-1 301z"/><path style="opacity:1" fill="#221f1f" d="M249.5 282.5v36h-12v-36h12z"/><path style="opacity:1" fill="#654d1d" d="M249.5 282.5a342.787 342.787 0 0 1 1 37c-4.532.318-8.866-.015-13-1h12v-36z"/><path style="opacity:1" fill="#221f1f" d="M586.5 293.5h13v37h-13v-37zM237.5 342.5h12v36h-12v-36z"/><path style="opacity:1" fill="#6c521c" d="M237.5 342.5c4.134-.985 8.468-1.318 13-1v38c-4.532.318-8.866-.015-13-1h12v-36h-12z"/><path style="opacity:1" fill="#221f1f" d="M237.5 404.5h12v36h-12v-36z"/><path style="opacity:1" fill="#6c521c" d="M237.5 404.5c4.134-.985 8.468-1.318 13-1v38c-4.532.318-8.866-.015-13-1h12v-36h-12z"/><path style="opacity:1" fill="#fbb613" d="M496.5 404.5c1.656 8.787 2.656 17.787 3 27a320.858 320.858 0 0 1 27-5 1483 1483 0 0 1-1 77 33159.976 33159.976 0 0 1-223 48c-1.991-25.312-2.657-50.978-2-77a433.131 433.131 0 0 0 23-5c-.332-9.357.002-18.69 1-28a120.305 120.305 0 0 1 19-4c1.656 8.787 2.656 17.787 3 27a784.266 784.266 0 0 0 31-7 196.869 196.869 0 0 0 1-28 453.56 453.56 0 0 0 17-3l2 27a451.096 451.096 0 0 1 32-6v-29a169.25 169.25 0 0 1 16-3h4c-.327 9.182.007 18.182 1 27a885.016 885.016 0 0 1 31.5-7c.5-9.661.666-19.328.5-29a152.1 152.1 0 0 0 14-2z"/><path style="opacity:1" fill="#c08d17" d="M496.5 404.5c.709-.904 1.709-1.237 3-1v28c-.344-9.213-1.344-18.213-3-27z"/><path style="opacity:1" fill="#936e1a" d="M445.5 415.5c1.419-.951 3.085-1.284 5-1v28c-.993-8.818-1.327-17.818-1-27h-4z"/><path style="opacity:1" fill="#58441d" d="M395.5 426.5c.06-.543.393-.876 1-1a196.869 196.869 0 0 1 1 28l-2-27z"/><path style="opacity:1" fill="#5b451d" d="M343.5 437.5c.709-.904 1.709-1.237 3-1v28c-.344-9.213-1.344-18.213-3-27z"/><path style="opacity:1" fill="#59441d" d="M300.5 474.5c-.657 26.022.009 51.688 2 77-.709.904-1.709 1.237-3 1-.331-26.172.002-52.172 1-78z"/><path style="opacity:1" fill="#00a54f" d="M644.5 486.5c3.152-.453 5.652.547 7.5 3 29.249 48.833 58.749 97.5 88.5 146-58.436 99.601-144.77 159.768-259 180.5-118.47 15.838-221.47-16.495-309-97-25.546-25.454-47.212-53.787-65-85a2743.699 2743.699 0 0 1 86-50 107239.686 107239.686 0 0 0 451-97.5z"/></svg>

<?xml version="1.0" encoding="UTF-8"?>
<!DOCTYPE svg PUBLIC "-//W3C//DTD SVG 1.1//EN" "http://www.w3.org/Graphics/SVG/1.1/DTD/svg11.dtd">
<svg xmlns="http://www.w3.org/2000/svg" version="1.1" width="850px" height="850px" style="shape-rendering:geometricPrecision; text-rendering:geometricPrecision; image-rendering:optimizeQuality; fill-rule:evenodd; clip-rule:evenodd" xmlns:xlink="http://www.w3.org/1999/xlink">
<g><path style="opacity:1" fill="#c8c7c7" d="M 837.5,17.5 C 837.5,15.5 837.5,13.5 837.5,11.5C 562.167,11.5 286.833,11.5 11.5,11.5C 11.5,12.8333 11.5,14.1667 11.5,15.5C 10.5489,14.0813 10.2155,12.4147 10.5,10.5C 286.5,10.5 562.5,10.5 838.5,10.5C 838.802,13.0593 838.468,15.3926 837.5,17.5 Z"/></g>
<g><path style="opacity:1" fill="#252223" d="M 837.5,17.5 C 826.95,176.207 815.783,334.873 804,493.5C 785.884,635.854 713.051,739.02 585.5,803C 483.677,848.101 381.011,850.101 277.5,809C 169.696,761.862 97.5288,682.362 61,570.5C 54.0829,547.581 49.0829,524.248 46,500.5C 33.6471,338.893 22.1471,177.227 11.5,15.5C 11.5,14.1667 11.5,12.8333 11.5,11.5C 286.833,11.5 562.167,11.5 837.5,11.5C 837.5,13.5 837.5,15.5 837.5,17.5 Z"/></g>
<g><path style="opacity:1" fill="#124262" d="M 818.5,34.5 C 818.5,32.8333 818.5,31.1667 818.5,29.5C 555.833,29.5 293.167,29.5 30.5,29.5C 30.5,30.5 30.5,31.5 30.5,32.5C 29.5655,31.4324 29.2322,30.099 29.5,28.5C 292.833,28.5 556.167,28.5 819.5,28.5C 819.795,30.7354 819.461,32.7354 818.5,34.5 Z"/></g>
<g><path style="opacity:1" fill="#0065a5" d="M 818.5,34.5 C 808.048,183.164 797.548,331.831 787,480.5C 782.776,531.662 768.943,579.995 745.5,625.5C 716.653,579.138 688.32,532.472 660.5,485.5C 660.5,361.167 660.5,236.833 660.5,112.5C 615.5,112.5 570.5,112.5 525.5,112.5C 525.5,213.833 525.5,315.167 525.5,416.5C 520.135,418.01 514.635,419.343 509,420.5C 508.5,411.173 508.334,401.839 508.5,392.5C 496.52,394.827 484.52,397.161 472.5,399.5C 472.5,409.167 472.5,418.833 472.5,428.5C 468.14,429.007 463.807,429.673 459.5,430.5C 459.5,421.167 459.5,411.833 459.5,402.5C 446.654,405.919 433.654,408.585 420.5,410.5C 420.5,420.167 420.5,429.833 420.5,439.5C 415.883,440.487 411.216,441.154 406.5,441.5C 406.5,432.5 406.5,423.5 406.5,414.5C 394.192,416.994 381.858,419.327 369.5,421.5C 369.5,431.167 369.5,440.833 369.5,450.5C 364.868,451.383 360.202,452.05 355.5,452.5C 355.5,443.5 355.5,434.5 355.5,425.5C 341.91,428.456 328.243,431.122 314.5,433.5C 314.5,443.167 314.5,452.833 314.5,462.5C 309.991,462.71 305.658,463.71 301.5,465.5C 300.5,391.836 300.167,318.17 300.5,244.5C 262.5,244.5 224.5,244.5 186.5,244.5C 186.667,355.501 186.5,466.501 186,577.5C 158.814,593.426 131.48,609.093 104,624.5C 103.228,624.355 102.561,624.022 102,623.5C 73.7167,565.882 59.3834,504.882 59,440.5C 49.5896,304.487 40.0896,168.487 30.5,32.5C 30.5,31.5 30.5,30.5 30.5,29.5C 293.167,29.5 555.833,29.5 818.5,29.5C 818.5,31.1667 818.5,32.8333 818.5,34.5 Z"/></g>
<g><path style="opacity:1" fill="#14405d" d="M 660.5,485.5 C 659.5,361.668 659.167,237.668 659.5,113.5C 615.167,113.5 570.833,113.5 526.5,113.5C 526.833,214.668 526.499,315.668 525.5,416.5C 525.5,315.167 525.5,213.833 525.5,112.5C 570.5,112.5 615.5,112.5 660.5,112.5C 660.5,236.833 660.5,361.167 660.5,485.5 Z"/></g>
<g><path style="opacity:1" fill="#5a451d" d="M 535.5,122.5 C 535.5,248.5 535.5,374.5 535.5,500.5C 536.5,500.5 537.5,500.5 538.5,500.5C 537.432,501.434 536.099,501.768 534.5,501.5C 534.167,374.999 534.5,248.666 535.5,122.5 Z"/></g>
<g><path style="opacity:1" fill="#fcb713" d="M 535.5,122.5 C 573.833,122.5 612.167,122.5 650.5,122.5C 650.667,240.5 650.5,358.5 650,476.5C 612.929,484.822 575.762,492.822 538.5,500.5C 537.5,500.5 536.5,500.5 535.5,500.5C 535.5,374.5 535.5,248.5 535.5,122.5 Z"/></g>
<g><path style="opacity:1" fill="#241f20" d="M 561.5,139.5 C 569.852,137.998 576.352,140.665 581,147.5C 582.441,156.058 582.941,164.724 582.5,173.5C 572.167,173.5 561.833,173.5 551.5,173.5C 551.124,164.765 551.624,156.098 553,147.5C 555.074,143.923 557.907,141.256 561.5,139.5 Z"/></g>
<g><path style="opacity:1" fill="#241f20" d="M 612.5,139.5 C 622.287,137.58 629.454,140.914 634,149.5C 634.5,157.493 634.666,165.493 634.5,173.5C 624.167,173.5 613.833,173.5 603.5,173.5C 603.124,164.765 603.624,156.098 605,147.5C 607.028,144.308 609.528,141.641 612.5,139.5 Z"/></g>
<g><path style="opacity:1" fill="#241f20" d="M 588.5,219.5 C 580.833,219.5 573.167,219.5 565.5,219.5C 565.5,213.167 565.5,206.833 565.5,200.5C 569.651,192.029 575.984,190.195 584.5,195C 585.787,196.41 586.954,197.91 588,199.5C 588.5,206.158 588.666,212.825 588.5,219.5 Z"/></g>
<g><path style="opacity:1" fill="#231f20" d="M 620.5,200.5 C 620.5,206.833 620.5,213.167 620.5,219.5C 612.833,219.5 605.167,219.5 597.5,219.5C 597.334,212.825 597.5,206.158 598,199.5C 603.186,191.924 609.686,190.591 617.5,195.5C 618.952,196.94 619.952,198.606 620.5,200.5 Z"/></g>
<g><path style="opacity:1" fill="#5c461c" d="M 565.5,200.5 C 565.5,206.833 565.5,213.167 565.5,219.5C 573.167,219.5 580.833,219.5 588.5,219.5C 580.684,220.492 572.684,220.826 564.5,220.5C 564.176,213.646 564.509,206.979 565.5,200.5 Z"/></g>
<g><path style="opacity:1" fill="#5c471d" d="M 620.5,200.5 C 621.491,206.979 621.824,213.646 621.5,220.5C 613.316,220.826 605.316,220.492 597.5,219.5C 605.167,219.5 612.833,219.5 620.5,219.5C 620.5,213.167 620.5,206.833 620.5,200.5 Z"/></g>
<g><path style="opacity:1" fill="#241f20" d="M 586.5,234.5 C 590.833,234.5 595.167,234.5 599.5,234.5C 599.5,246.833 599.5,259.167 599.5,271.5C 595.167,271.5 590.833,271.5 586.5,271.5C 586.5,259.167 586.5,246.833 586.5,234.5 Z"/></g>
<g><path style="opacity:1" fill="#fcb713" d="M 290.5,554.5 C 259.126,561.041 227.792,567.708 196.5,574.5C 196.5,467.833 196.5,361.167 196.5,254.5C 227.833,254.5 259.167,254.5 290.5,254.5C 290.5,354.5 290.5,454.5 290.5,554.5 Z"/></g>
<g><path style="opacity:1" fill="#7e5f1b" d="M 290.5,554.5 C 290.5,454.5 290.5,354.5 290.5,254.5C 259.167,254.5 227.833,254.5 196.5,254.5C 196.5,361.167 196.5,467.833 196.5,574.5C 195.501,467.668 195.167,360.668 195.5,253.5C 227.5,253.5 259.5,253.5 291.5,253.5C 291.833,354.001 291.499,454.335 290.5,554.5 Z"/></g>
<g><path style="opacity:1" fill="#221f1f" d="M 249.5,282.5 C 249.5,294.5 249.5,306.5 249.5,318.5C 245.5,318.5 241.5,318.5 237.5,318.5C 237.5,306.5 237.5,294.5 237.5,282.5C 241.5,282.5 245.5,282.5 249.5,282.5 Z"/></g>
<g><path style="opacity:1" fill="#654d1d" d="M 249.5,282.5 C 250.495,294.655 250.829,306.989 250.5,319.5C 245.968,319.818 241.634,319.485 237.5,318.5C 241.5,318.5 245.5,318.5 249.5,318.5C 249.5,306.5 249.5,294.5 249.5,282.5 Z"/></g>
<g><path style="opacity:1" fill="#221f1f" d="M 586.5,293.5 C 590.833,293.5 595.167,293.5 599.5,293.5C 599.5,305.833 599.5,318.167 599.5,330.5C 595.167,330.5 590.833,330.5 586.5,330.5C 586.5,318.167 586.5,305.833 586.5,293.5 Z"/></g>
<g><path style="opacity:1" fill="#221f1f" d="M 237.5,342.5 C 241.5,342.5 245.5,342.5 249.5,342.5C 249.5,354.5 249.5,366.5 249.5,378.5C 245.5,378.5 241.5,378.5 237.5,378.5C 237.5,366.5 237.5,354.5 237.5,342.5 Z"/></g>
<g><path style="opacity:1" fill="#6c521c" d="M 237.5,342.5 C 241.634,341.515 245.968,341.182 250.5,341.5C 250.5,354.167 250.5,366.833 250.5,379.5C 245.968,379.818 241.634,379.485 237.5,378.5C 241.5,378.5 245.5,378.5 249.5,378.5C 249.5,366.5 249.5,354.5 249.5,342.5C 245.5,342.5 241.5,342.5 237.5,342.5 Z"/></g>
<g><path style="opacity:1" fill="#221f1f" d="M 237.5,404.5 C 241.5,404.5 245.5,404.5 249.5,404.5C 249.5,416.5 249.5,428.5 249.5,440.5C 245.5,440.5 241.5,440.5 237.5,440.5C 237.5,428.5 237.5,416.5 237.5,404.5 Z"/></g>
<g><path style="opacity:1" fill="#6c521c" d="M 237.5,404.5 C 241.634,403.515 245.968,403.182 250.5,403.5C 250.5,416.167 250.5,428.833 250.5,441.5C 245.968,441.818 241.634,441.485 237.5,440.5C 241.5,440.5 245.5,440.5 249.5,440.5C 249.5,428.5 249.5,416.5 249.5,404.5C 245.5,404.5 241.5,404.5 237.5,404.5 Z"/></g>
<g><path style="opacity:1" fill="#fbb613" d="M 496.5,404.5 C 498.156,413.287 499.156,422.287 499.5,431.5C 508.419,429.45 517.419,427.783 526.5,426.5C 526.833,452.175 526.5,477.842 525.5,503.5C 451.22,519.756 376.887,535.756 302.5,551.5C 300.509,526.188 299.843,500.522 300.5,474.5C 308.207,473.043 315.873,471.376 323.5,469.5C 323.168,460.143 323.502,450.81 324.5,441.5C 330.728,439.654 337.062,438.321 343.5,437.5C 345.156,446.287 346.156,455.287 346.5,464.5C 356.867,462.379 367.2,460.046 377.5,457.5C 378.498,448.19 378.832,438.857 378.5,429.5C 384.196,428.606 389.863,427.606 395.5,426.5C 396.167,435.5 396.833,444.5 397.5,453.5C 408.094,451.115 418.761,449.115 429.5,447.5C 429.5,437.833 429.5,428.167 429.5,418.5C 434.782,417.244 440.115,416.244 445.5,415.5C 446.833,415.5 448.167,415.5 449.5,415.5C 449.173,424.682 449.507,433.682 450.5,442.5C 460.96,439.975 471.46,437.641 482,435.5C 482.5,425.839 482.666,416.172 482.5,406.5C 487.202,406.05 491.868,405.383 496.5,404.5 Z"/></g>
<g><path style="opacity:1" fill="#c08d17" d="M 496.5,404.5 C 497.209,403.596 498.209,403.263 499.5,403.5C 499.5,412.833 499.5,422.167 499.5,431.5C 499.156,422.287 498.156,413.287 496.5,404.5 Z"/></g>
<g><path style="opacity:1" fill="#936e1a" d="M 445.5,415.5 C 446.919,414.549 448.585,414.216 450.5,414.5C 450.5,423.833 450.5,433.167 450.5,442.5C 449.507,433.682 449.173,424.682 449.5,415.5C 448.167,415.5 446.833,415.5 445.5,415.5 Z"/></g>
<g><path style="opacity:1" fill="#58441d" d="M 395.5,426.5 C 395.56,425.957 395.893,425.624 396.5,425.5C 397.498,434.81 397.832,444.143 397.5,453.5C 396.833,444.5 396.167,435.5 395.5,426.5 Z"/></g>
<g><path style="opacity:1" fill="#5b451d" d="M 343.5,437.5 C 344.209,436.596 345.209,436.263 346.5,436.5C 346.5,445.833 346.5,455.167 346.5,464.5C 346.156,455.287 345.156,446.287 343.5,437.5 Z"/></g>
<g><path style="opacity:1" fill="#59441d" d="M 300.5,474.5 C 299.843,500.522 300.509,526.188 302.5,551.5C 301.791,552.404 300.791,552.737 299.5,552.5C 299.169,526.328 299.502,500.328 300.5,474.5 Z"/></g>
<g><path style="opacity:1" fill="#00a54f" d="M 644.5,486.5 C 647.652,486.047 650.152,487.047 652,489.5C 681.249,538.333 710.749,587 740.5,635.5C 682.064,735.101 595.73,795.268 481.5,816C 363.03,831.838 260.03,799.505 172.5,719C 146.954,693.546 125.288,665.213 107.5,634C 135.839,616.828 164.506,600.162 193.5,584C 344.039,551.794 494.373,519.294 644.5,486.5 Z"/></g>
</svg>
